X: 982
T: the Bold Deserter
B: Francis O'Neill: "The Dance Music of Ireland" (1907) #982
R: march; long dance, set dance
%S: s:2 b:16(8+8)
Z: Frank Nordberg - http://www.musicaviva.com
F: http://www.musicaviva.com/abc/tunes/ireland/oneill-1001/0982/oneill-1001-0982-1.abc
M: C
L: 1/8
K: D
"^A"[|] \
   (fe) | d2A2 B2(AF) | ABde f(edB) | A(FEF) D2D2 | D6 |\
|  (AG) | F2A2 d2(ef) | g2f2 e2(de) | (fedB) AFEF | A6 |]
"^B"\
|: (AG) | F2A2 d2(ef) | g2f2 e2(de) | f(edB) AFEF | A6 |\
|  (fe) | d2A2 B2(AF) | ABde f(edB) | AFEF D2D2 | D4 :|
